!!!OTL: AUF DIESER WELT HAB ICH KEIN FREUD
!!!ARE: Europa, Mitteleuropa, Deutschland
!!!SCT: Z0231
!!!YEM: Copyright 1995, estate of Helmut Schaffrath.
**kern
*ICvox
*Ivox
*M3/4
*k[]
*C:
{4c
=1
8c
16B
16A
4G
4A
=2
8G
16G
16F
8E}
{8G
8c
8d
=3
4.e
8e
8d
16d
16e
=4
4c
8r}
{8e
8B
8c
=5
4A
4d
16B
16c
16A
16B
=6
4.G}
{8G
8c
8d
=7
4.e
8e
8d
16d
16e
=8
4c
4r}
==
!!!AGN: Soldaten - Lied, Abschieds - Lied
!!!ONB: ESAC (Essen Associative Code) Database: ZUCCAL
!!!AMT: simple triple
!!!AIN: vox
!!!EED: Helmut Schaffrath
!!!EEV: 1.0
*-
